src/assets/tulip/bee.svg

<svg width="112" height="80" viewBox="0 0 112 80" fill="none" xmlns="http://www.w3.org/2000/svg">
<path d="M46.4254 34.6277C45.8265 34.4245 45.1912 34.3517 44.5619 34.4141C43.9326 34.4766 43.3238 34.6728 42.7766 34.9897L2.19018 58.4991C2.17515 58.5079 2.16019 58.5167 2.14541 58.5259C0.0912674 59.7905 -0.564578 62.1317 0.512845 64.3519C1.85681 67.1195 6.61765 69.725 12.36 70.8355C14.4509 71.2362 16.5754 71.4363 18.7043 71.4332C23.2753 71.4332 28.8865 70.5334 35.1001 67.6361C39.9263 65.386 44.5155 60.4716 47.3765 54.4885C50.3906 48.1853 50.9876 41.827 49.0144 37.0438C48.7799 36.4799 48.4277 35.9725 47.9812 35.5558C47.5346 35.1391 47.0042 34.8227 46.4254 34.6277Z" fill="#7CE0D6"/>
<path d="M109.336 58.5259C109.321 58.5167 109.306 58.5079 109.291 58.4991L68.7055 34.9897C68.1582 34.6727 67.5496 34.4764 66.9203 34.414C66.2909 34.3516 65.6555 34.4244 65.0566 34.6277C64.4776 34.8225 63.9471 35.1389 63.5004 35.5557C63.0537 35.9725 62.7013 36.4799 62.4669 37.0441C60.4937 41.827 61.0892 48.1853 64.1048 54.4885C66.9655 60.4708 71.5545 65.3855 76.3795 67.636C82.5941 70.5334 88.2046 71.4332 92.7755 71.4332C94.9044 71.4363 97.0288 71.2362 99.1196 70.8355C104.862 69.725 109.623 67.1195 110.967 64.3524C112.046 62.1324 111.39 59.7907 109.336 58.5259Z" fill="#7CE0D6"/>
<path fill-rule="evenodd" clip-rule="evenodd" d="M39.1775 1.94179C39.1775 0.86937 40.0469 0 41.1193 0C44.4761 0 47.6955 1.33352 50.0691 3.70715C52.4428 6.08076 53.7763 9.30005 53.7763 12.6569C53.7763 13.7293 52.9069 14.5987 51.8345 14.5987C50.7621 14.5987 49.8927 13.7293 49.8927 12.6569C49.8927 10.3301 48.9684 8.09859 47.323 6.45326C45.6777 4.80794 43.4461 3.88358 41.1193 3.88358C40.0469 3.88358 39.1775 3.01421 39.1775 1.94179Z" fill="#2C3437"/>
<path fill-rule="evenodd" clip-rule="evenodd" d="M70.6068 3.88358C69.4547 3.88358 68.3138 4.11054 67.2494 4.55144C66.185 4.99234 65.2179 5.63855 64.4032 6.45324C63.5886 7.26792 62.9423 8.23509 62.5015 9.29951C62.0606 10.3639 61.8338 11.5047 61.8338 12.6568C61.8338 13.7293 60.9645 14.5987 59.892 14.5987C58.8196 14.5987 57.9502 13.7294 57.9502 12.6569C57.9502 10.9949 58.2774 9.34905 58.9135 7.81339C59.5495 6.27779 60.4818 4.88248 61.6571 3.70716C62.8324 2.53187 64.2276 1.59957 65.7632 0.963486C67.2988 0.327413 68.9447 0 70.6068 0C71.6793 0 72.5486 0.86937 72.5486 1.94179C72.5486 3.01421 71.6793 3.88358 70.6068 3.88358Z" fill="#2C3437"/>
<path d="M74.8848 67.9929H32.9368L51.9924 78.99C53.132 79.6509 54.4258 79.9993 55.7431 80.0001C57.0605 80.0008 58.3548 79.6539 59.4951 78.9943L78.5585 67.9923L74.8848 67.9929Z" fill="#2C3437"/>
<path d="M80.7645 43.7037H28.7759V56.3074H82.7062V43.7037H80.7645Z" fill="#2C3437"/>
<path d="M78.9648 32.29L78.4938 32.0182H33.0023L32.5292 32.2915C31.3917 32.95 30.4467 33.8952 29.7883 35.0328C29.1299 36.1703 28.7812 37.4605 28.7769 38.7749V43.7037H82.7071V38.7756C82.7023 37.4622 82.3546 36.1728 81.6982 35.0353C81.0418 33.8977 80.0995 32.9513 78.9648 32.29Z" fill="#FFDD0F"/>
<path d="M80.7645 56.3071H28.7759V61.2607C28.779 62.5775 29.1274 63.8705 29.7862 65.0107C30.445 66.1509 31.3913 67.0986 32.5305 67.759L32.9369 67.9937H78.5586L78.9725 67.7547C80.1061 67.091 81.0467 66.1429 81.7014 65.0041C82.356 63.8652 82.702 62.5752 82.705 61.2616V56.3082L80.7645 56.3071Z" fill="#FFDD0F"/>
<path d="M59.4972 21.0549C58.3582 20.395 57.0652 20.0473 55.7489 20.0471C54.4326 20.0469 53.1394 20.3941 52.0002 21.0536L33.0015 32.0182H78.4942L59.4972 21.0549Z" fill="#2C3437"/>
</svg>

<svg width="112" height="80" fill="none" xmlns="http://www.w3.org/2000/svg"><path d="M46.425 34.628a4.437 4.437 0 00-3.648.362L2.19 58.5l-.045.026C.091 59.79-.565 62.132.513 64.352c1.344 2.767 6.105 5.373 11.847 6.483 2.09.401 4.215.601 6.344.598 4.571 0 10.183-.9 16.396-3.797 4.826-2.25 9.416-7.164 12.276-13.147 3.015-6.304 3.612-12.662 1.638-17.445a4.287 4.287 0 00-2.589-2.416zM109.336 58.526l-.045-.027-40.585-23.51a4.435 4.435 0 00-3.65-.361 4.283 4.283 0 00-2.59 2.416c-1.972 4.783-1.377 11.141 1.639 17.445 2.86 5.982 7.45 10.896 12.274 13.147 6.215 2.897 11.826 3.797 16.396 3.797a33.447 33.447 0 006.345-.598c5.742-1.11 10.503-3.715 11.847-6.483 1.079-2.22.423-4.561-1.631-5.826z" fill="#7CE0D6"/><path fill-rule="evenodd" clip-rule="evenodd" d="M39.178 1.942C39.178.869 40.047 0 41.119 0a12.657 12.657 0 0112.657 12.657 1.942 1.942 0 01-3.883 0 8.773 8.773 0 00-8.774-8.773 1.942 1.942 0 01-1.941-1.942zM70.607 3.884a8.773 8.773 0 00-8.773 8.773 1.942 1.942 0 11-3.884 0A12.656 12.656 0 0170.607 0a1.942 1.942 0 110 3.884z" fill="#2C3437"/><path d="M74.885 67.993H32.937L51.992 78.99a7.485 7.485 0 007.503.004l19.063-11.002h-3.673zM80.764 43.704H28.776v12.603h53.93V43.704h-1.942z" fill="#2C3437"/><path d="M78.965 32.29l-.471-.272H33.002l-.473.273a7.52 7.52 0 00-3.752 6.484v4.929h53.93v-4.928a7.539 7.539 0 00-3.742-6.486zM80.764 56.307H28.776v4.954a7.531 7.531 0 003.755 6.498l.406.235h45.622l.413-.24a7.545 7.545 0 003.733-6.492v-4.954h-1.94z" fill="#FFDD0F"/><path d="M59.497 21.055A7.48 7.48 0 0052 21.054L33.002 32.018h45.492L59.497 21.055z" fill="#2C3437"/></svg>
